**kern
*clefF4
*k[]
*M4/4
=1
*^
2.c 2.e	2C 2G
.	2GG 2F
4B 4d	.
=2	=2
2.c	2.AA 2.E
4F 4A 4d	4FF
=3	=3
*	*^
2.c	2E 2G	1GG
.	2D 2F	.
4B	.	.
*	*v	*v
=4	=4
2.C 2.E 2.c	2.CC
4r	4r
=5||	=5||
*^	*^
2.c	2A	2.E\	2AA\
.	2G#X	.	2EE\
4B	.	4D\	.
*	*v	*v	*v
=6	=6
2.A	2.FF 2.C
4D 4F 4B	4DD
=7	=7
*	*^
2A	2C	1CC 1E
2G#X	4BB	.
.	4D	.
*	*v	*v
=8	=8
2.C 2.E 2.A	2.AAA
4r	4r
*v	*v
==
*-
!!!system-decoration: [(s1
